app/assets/images/icons/active/flights-right.svg

<?xml version="1.0" encoding="UTF-8" standalone="no"?>
<svg width="32px" height="232px" viewBox="0 0 32 232" version="1.1" xmlns="http://www.w3.org/2000/svg" xmlns:xlink="http://www.w3.org/1999/xlink" xmlns:sketch="http://www.bohemiancoding.com/sketch/ns">
    <title>flights-right</title>
    <description>Created with Sketch (http://www.bohemiancoding.com/sketch)</description>
    <defs></defs>
    <g id="Graphics" stroke="none" stroke-width="1" fill="none" fill-rule="evenodd" sketch:type="MSPage">
        <path d="M25.8798586,133.9045 L21.8848586,133.9045 L13.2788586,123.5875 C12.4668586,122.8045 11.1678586,122.8045 10.3688586,123.5855 C9.57085856,124.3785 9.71185856,125.2605 10.3088586,126.5895 L14.3008586,133.9045 L8.57985856,133.9045 C8.17185856,133.9045 7.79585856,134.0235 7.47085856,134.2175 L4.58285856,131.1105 C4.23485856,130.7575 3.64985856,130.7575 3.28785856,131.1105 C2.93785856,131.4685 2.93785856,132.0365 3.28685856,132.3905 L5.49685856,136.0025 L3.22385856,139.5505 C2.89485856,140.0475 2.93885856,140.5435 3.28785856,140.8995 C3.64985856,141.2515 4.23485856,141.2515 4.58485856,140.8995 L7.48785856,137.7755 C7.80885856,137.9625 8.17885856,138.0775 8.57985856,138.0775 L14.3078586,138.0775 L10.3098586,145.4095 C9.71185856,146.7395 9.56985856,147.6215 10.3678586,148.4105 C11.1678586,149.1975 12.4678586,149.1975 13.2788586,148.4095 L21.9008586,138.0775 L25.8798586,138.0775 C27.0458586,138.0775 27.9938586,137.1455 27.9998586,135.9945 C27.9978586,134.8415 27.0448586,133.9045 25.8798586,133.9045 Z M25.8798586,133.9045" id="flights-right--white" fill="#206FAC" sketch:type="MSShapeGroup"></path>
        <path d="M25.8798586,93.9045002 L21.8848586,93.9045002 L13.2788586,83.5875002 C12.4668586,82.8045002 11.1678586,82.8045002 10.3688586,83.5855002 C9.57085856,84.3785002 9.71185856,85.2605002 10.3088586,86.5895002 L14.3008586,93.9045002 L8.57985856,93.9045002 C8.17185856,93.9045002 7.79585856,94.0235002 7.47085856,94.2175002 L4.58285856,91.1105002 C4.23485856,90.7575002 3.64985856,90.7575002 3.28785856,91.1105002 C2.93785856,91.4685002 2.93785856,92.0365002 3.28685856,92.3905002 L5.49685856,96.0025002 L3.22385856,99.5505002 C2.89485856,100.0475 2.93885856,100.5435 3.28785856,100.8995 C3.64985856,101.2515 4.23485856,101.2515 4.58485856,100.8995 L7.48785856,97.7755002 C7.80885856,97.9625002 8.17885856,98.0775002 8.57985856,98.0775002 L14.3078586,98.0775002 L10.3098586,105.4095 C9.71185856,106.7395 9.56985856,107.6215 10.3678586,108.4105 C11.1678586,109.1975 12.4678586,109.1975 13.2788586,108.4095 L21.9008586,98.0775002 L25.8798586,98.0775002 C27.0458586,98.0775002 27.9938586,97.1455002 27.9998586,95.9945002 C27.9978586,94.8415002 27.0448586,93.9045002 25.8798586,93.9045002 Z M25.8798586,93.9045002" id="flights-right--subdued-grey" fill="#FFFFFF" sketch:type="MSShapeGroup"></path>
        <path d="M25.8798586,53.9045002 L21.8848586,53.9045002 L13.2788586,43.5875002 C12.4668586,42.8045002 11.1678586,42.8045002 10.3688586,43.5855002 C9.57085856,44.3785002 9.71185856,45.2605002 10.3088586,46.5895002 L14.3008586,53.9045002 L8.57985856,53.9045002 C8.17185856,53.9045002 7.79585856,54.0235002 7.47085856,54.2175002 L4.58285856,51.1105002 C4.23485856,50.7575002 3.64985856,50.7575002 3.28785856,51.1105002 C2.93785856,51.4685002 2.93785856,52.0365002 3.28685856,52.3905002 L5.49685856,56.0025002 L3.22385856,59.5505002 C2.89485856,60.0475002 2.93885856,60.5435002 3.28785856,60.8995002 C3.64985856,61.2515002 4.23485856,61.2515002 4.58485856,60.8995002 L7.48785856,57.7755002 C7.80885856,57.9625002 8.17885856,58.0775002 8.57985856,58.0775002 L14.3078586,58.0775002 L10.3098586,65.4095002 C9.71185856,66.7395002 9.56985856,67.6215002 10.3678586,68.4105002 C11.1678586,69.1975002 12.4678586,69.1975002 13.2788586,68.4095002 L21.9008586,58.0775002 L25.8798586,58.0775002 C27.0458586,58.0775002 27.9938586,57.1455002 27.9998586,55.9945002 C27.9978586,54.8415002 27.0448586,53.9045002 25.8798586,53.9045002 Z M25.8798586,53.9045002" id="flights-right--body-grey" fill="#67737B" sketch:type="MSShapeGroup"></path>
        <path d="M26.3798586,13.9045002 L22.3848586,13.9045002 L13.7788586,3.58750024 C12.9668586,2.80450024 11.6678586,2.80450024 10.8688586,3.58550024 C10.0708586,4.37850024 10.2118586,5.26050024 10.8088586,6.58950024 L14.8008586,13.9045002 L9.07985856,13.9045002 C8.67185856,13.9045002 8.29585856,14.0235002 7.97085856,14.2175002 L5.08285856,11.1105002 C4.73485856,10.7575002 4.14985856,10.7575002 3.78785856,11.1105002 C3.43785856,11.4685002 3.43785856,12.0365002 3.78685856,12.3905002 L5.99685856,16.0025002 L3.72385856,19.5505002 C3.39485856,20.0475002 3.43885856,20.5435002 3.78785856,20.8995002 C4.14985856,21.2515002 4.73485856,21.2515002 5.08485856,20.8995002 L7.98785856,17.7755002 C8.30885856,17.9625002 8.67885856,18.0775002 9.07985856,18.0775002 L14.8078586,18.0775002 L10.8098586,25.4095002 C10.2118586,26.7395002 10.0698586,27.6215002 10.8678586,28.4105002 C11.6678586,29.1975002 12.9678586,29.1975002 13.7788586,28.4095002 L22.4008586,18.0775002 L26.3798586,18.0775002 C27.5458586,18.0775002 28.4938586,17.1455002 28.4998586,15.9945002 C28.4978586,14.8415002 27.5448586,13.9045002 26.3798586,13.9045002 Z M26.3798586,13.9045002" id="flights-right--title-grey" fill="#3A434E" sketch:type="MSShapeGroup"></path>
    </g>
</svg>

<svg width="32" height="232" viewBox="0 0 32 232" xmlns="http://www.w3.org/2000/svg" xmlns:sketch="http://www.bohemiancoding.com/sketch/ns"><title>flights-right</title><g sketch:type="MSPage" fill="none"><path d="M25.88 133.905h-3.995l-8.606-10.317c-.812-.783-2.111-.783-2.91-.002-.798.793-.657 1.675-.06 3.004l3.992 7.315h-5.721c-.408 0-.784.119-1.109.313l-2.888-3.107c-.348-.353-.933-.353-1.295 0-.35.358-.35.926-.001 1.28l2.21 3.612-2.273 3.548c-.329.497-.285.993.064 1.349.362.352.947.352 1.297 0l2.903-3.124c.321.187.691.302 1.092.302h5.728l-3.998 7.332c-.598 1.33-.74 2.212.058 3.001.8.787 2.1.787 2.911-.001l8.622-10.332h3.979c1.166 0 2.114-.932 2.12-2.083-.002-1.153-.955-2.09-2.12-2.09zm0 0" fill="#206FAC" sketch:type="MSShapeGroup"/><path d="M25.88 93.905h-3.995l-8.606-10.317c-.812-.783-2.111-.783-2.91-.002-.798.793-.657 1.675-.06 3.004l3.992 7.315h-5.721c-.408 0-.784.119-1.109.313l-2.888-3.107c-.348-.353-.933-.353-1.295 0-.35.358-.35.926-.001 1.28l2.21 3.612-2.273 3.548c-.329.497-.285.993.064 1.349.362.352.947.352 1.297 0l2.903-3.124c.321.187.691.302 1.092.302h5.728l-3.998 7.332c-.598 1.33-.74 2.212.058 3.001.8.787 2.1.787 2.911-.001l8.622-10.332h3.979c1.166 0 2.114-.932 2.12-2.083-.002-1.153-.955-2.09-2.12-2.09zm0 0" fill="#fff" sketch:type="MSShapeGroup"/><path d="M25.88 53.905h-3.995l-8.606-10.317c-.812-.783-2.111-.783-2.91-.002-.798.793-.657 1.675-.06 3.004l3.992 7.315h-5.721c-.408 0-.784.119-1.109.313l-2.888-3.107c-.348-.353-.933-.353-1.295 0-.35.358-.35.926-.001 1.28l2.21 3.612-2.273 3.548c-.329.497-.285.993.064 1.349.362.352.947.352 1.297 0l2.903-3.124c.321.187.691.302 1.092.302h5.728l-3.998 7.332c-.598 1.33-.74 2.212.058 3.001.8.787 2.1.787 2.911-.001l8.622-10.332h3.979c1.166 0 2.114-.932 2.12-2.083-.002-1.153-.955-2.09-2.12-2.09zm0 0" fill="#67737B" sketch:type="MSShapeGroup"/><path d="M26.38 13.905h-3.995l-8.606-10.317c-.812-.783-2.111-.783-2.91-.002-.798.793-.657 1.675-.06 3.004l3.992 7.315h-5.721c-.408 0-.784.119-1.109.313l-2.888-3.107c-.348-.353-.933-.353-1.295 0-.35.358-.35.926-.001 1.28l2.21 3.612-2.273 3.548c-.329.497-.285.993.064 1.349.362.352.947.352 1.297 0l2.903-3.124c.321.187.691.302 1.092.302h5.728l-3.998 7.332c-.598 1.33-.74 2.212.058 3.001.8.787 2.1.787 2.911-.001l8.622-10.332h3.979c1.166 0 2.114-.932 2.12-2.083-.002-1.153-.955-2.09-2.12-2.09zm0 0" fill="#3A434E" sketch:type="MSShapeGroup"/></g></svg>
